IMB-X-Files/The-Ambassadors-Assets/660c0a32ec48a239cd08a3e5_g2-crowd-vector-logo-2022 1.svg

<svg fill="none" height="115" viewBox="0 0 115 115" width="115" xmlns="http://www.w3.org/2000/svg"><path clip-rule="evenodd" d="m56.667 100.26c23.9975 0 43.442-19.4444 43.442-43.442 0-23.9801-19.4445-43.4423-43.442-43.4423-23.9976 0-43.4423 19.4448-43.4423 43.4423 0 23.9976 19.4447 43.442 43.4423 43.442zm7.5763-50.5315h11.2255v-3.0757h-7.4199c.2085-1.1642.921-1.8246 2.3806-2.5544l1.3728-.6951c2.4328-1.2511 3.736-2.6586 3.736-4.9698 0-1.4423-.556-2.5891-1.6855-3.4232-1.0948-.8341-2.4328-1.2338-3.9793-1.2338-1.2338 0-2.3633.3128-3.3885.9557-1.0079.643-1.7725 1.4423-2.2417 2.4502l2.1548 2.1547c.8341-1.6855 2.0331-2.5196 3.6318-2.5196 1.338 0 2.1721.6951 2.1721 1.6508 0 .7993-.3997 1.477-1.9462 2.259l-.8689.4344c-1.9115.9731-3.2321 2.0679-3.9967 3.319-.7646 1.2338-1.1469 2.8151-1.1469 4.7265zm-2.0504 3.5449h12.2854l6.1515 10.6347-6.1341 10.6347-6.1514-10.6347h-12.2855zm-19.2537 3.5623c0 7.8196 6.36 14.1796 14.1796 14.1796 3.5275 0 6.7596-1.3033 9.2271-3.4233l5.3869 9.314c-4.101 2.9889-9.1576 4.7613-14.614 4.7613-13.7278 0-24.8316-11.1212-24.8316-24.8316 0-13.693 11.1212-24.8143 24.8316-24.8143 1.6682 0 3.2842.1564 4.8655.4692l-4.8655 10.1655c-7.8196 0-14.1796 6.36-14.1796 14.1796z" fill="#fff" fill-rule="evenodd"/></svg>

<svg width="115" height="115" viewBox="0 0 115 115" fill="none" xmlns="http://www.w3.org/2000/svg">
    <path fill-rule="evenodd" clip-rule="evenodd"
        d="M56.667 100.26C80.6645 100.26 100.109 80.8156 100.109 56.818C100.109 32.8379 80.6645 13.3757 56.667 13.3757C32.6694 13.3757 13.2247 32.8205 13.2247 56.818C13.2247 80.8156 32.6694 100.26 56.667 100.26ZM64.2433 49.7285H75.4688V46.6528H68.0489C68.2574 45.4886 68.9699 44.8282 70.4295 44.0984L71.8023 43.4033C74.2351 42.1522 75.5383 40.7447 75.5383 38.4335C75.5383 36.9912 74.9823 35.8444 73.8528 35.0103C72.758 34.1762 71.42 33.7765 69.8735 33.7765C68.6397 33.7765 67.5102 34.0893 66.485 34.7322C65.4771 35.3752 64.7125 36.1745 64.2433 37.1824L66.3981 39.3371C67.2322 37.6516 68.4312 36.8175 70.0299 36.8175C71.3679 36.8175 72.202 37.5126 72.202 38.4683C72.202 39.2676 71.8023 39.9453 70.2558 40.7273L69.3869 41.1617C67.4754 42.1348 66.1548 43.2296 65.3902 44.4807C64.6256 45.7145 64.2433 47.2958 64.2433 49.2072V49.7285ZM62.1929 53.2734H74.4783L80.6298 63.9081L74.4957 74.5428L68.3443 63.9081H56.0588L62.1929 53.2734ZM42.9392 56.8357C42.9392 64.6553 49.2992 71.0153 57.1188 71.0153C60.6463 71.0153 63.8784 69.712 66.3459 67.592L71.7328 76.906C67.6318 79.8949 62.5752 81.6673 57.1188 81.6673C43.391 81.6673 32.2872 70.5461 32.2872 56.8357C32.2872 43.1427 43.4084 32.0214 57.1188 32.0214C58.787 32.0214 60.403 32.1778 61.9843 32.4906L57.1188 42.6561C49.2992 42.6561 42.9392 49.0161 42.9392 56.8357Z"
        fill="white" />
</svg>
